X:1
T:A Throne for Calvary
T:Frederick William Vandersloot, 1909
T:A Throne for Calvary
T:Public Domain
T:Public Domain
C:Frederick William Vandersloot, 1909
Z:Public Domain
%%score ( 1 2 ) ( 3 4 )
L:1/8
M:4/4
K:D
V:1 treble 
V:2 treble 
V:3 bass 
V:4 bass 
V:1
 [FA][EG] | [DF]2 [DF]2 [GB][FA][A,D][B,E] | [DF]2 [FA]2 [FA]2 [Fd][Fc] | %3
w: 1.~O the|won- drous sto- ry of a|Sav- ior’s love, Com- ing|
w: 2.~Thro’ God’s|ten- der mer- cy and His|bound- less love, Je- sus|
w: 3.~O the|pre- cious know- ledge of a|Sav- ior’s love, And a|
 [GB][DG][DG][GB] [Gd]2 [GB]2 | [FA]6 [FA][EG] | [DF]2 [DF]2 [GB][FA][DF][DA] | %6
w: from a throne to Cal- va-|ry; Leav- ing|all the glo- ries of that|
w: left a throne for Cal- va-|ry; But he|con- quered death, and lives, and|
w: peace the world can- not de-|stroy; While the|blest as- sur- ance of a|
 [Dd]2 [GB]2 [GB]2 D[CE] | [DF][FA][GB][FA] [DF]2 [CE]2 | D6 ||"^Refrain" [FA]2 | %10
w: home a- bove, Died to|and set a lost world free.|||
w: reigns a- bove, Now His|a- tones for you and me.|||
w: home a- bove, Fills the|and soul with praise and joy.|||
 [Gc]3 [Gc] [GB]2 [GA]2 | [Fd]3 [DF] [FA]2 [FA]2 | [GB][GB][DG][GB] [Gd]2 [GB]2 | [FA]6 D2 | %14
w: ||||
w: ||||
w: ||||
 [DF]3 [DF] [CG]2 [CG]2 | [DA]2 [E^A]2 [GB]2 (D[CE]) | [DF][FA][GB][FA] [DF]2 [CE]2 | D6 x2 |] %18
w: ||||
w: ||||
w: ||||
V:2
 x2 | x8 | x8 | x8 | x8 | x8 | x6 D x | x8 | D6 || x2 | x8 | x8 | x8 | x6 D2 | x8 | x8 | x8 | %17
w: ||||||save|||||||||||
w: ||||||blood|||||||||||
w: ||||||heart|||||||||||
 D6 x2 |] %18
w: |
w: |
w: |
V:3
 [D,A,][D,A,] | [D,A,]2 [D,A,]2 [D,D][D,D][D,F,][D,G,] | [D,A,]2 [D,D]2 [D,D]2 [D,D][D,D] | %3
w: ~ ~|~ ~ ~ ~ ~ ~|~ ~ ~ ~ ~|
 [G,D][G,B,][G,B,][G,D] [G,B,]2 [G,D]2 | [D,D]6 [D,A,][D,A,] | %5
w: ~ ~ ~ ~ ~ ~|~ ~ ~|
 [D,A,]2 [D,A,]2 [D,D][D,D][D,A,][F,A,] | [G,B,]2 [G,D]2 [G,D]2 [F,A,][E,A,] | %7
w: ~ ~ ~ ~ ~ ~|~ ~ ~ ~ ~|
 [D,A,][D,D][D,D][D,A,] [A,,A,]2 (A,G,) | [D,F,]6 || [D,A,]2 | [A,,A,]3 [A,,A,] [B,,A,]2 [C,A,]2 | %11
w: ~ ~ ~ ~ ~ ~ *|O|love|di- vine, His love|
 [D,A,]3 [D,A,] [D,D]2 [D,D]2 | [G,D][G,D][G,B,][G,D] [G,B,]2 [G,D]2 | [D,D]6 [D,F,]2 | %14
w: to prove, Christ paid|the debt for you and me;|All praise|
 [D,A,]3 [D,A,] [E,A,]2 [E,A,]2 | [F,A,]2 [G,C]2 [G,D]2 (F,E,) | %16
w: to His re- deem-|ing love, He left *|
 [D,A,][D,D][D,D][D,A,] [A,,A,]2 (A,G,) | [D,F,]8 |] %18
w: throne for Cal- va- ry. * *||
V:4
 x2 | x8 | x8 | x8 | x8 | x8 | x8 | x6 A,,2 | x6 || x2 | x8 | x8 | x8 | x8 | x8 | x6 A,2 | %16
w: |||||||~||||||||a|
 x6 A,,2 | x8 |] %18
w: ||

